X:3064
T:Clancy's Fancy Reel (?)
R:Reel
S:
H:
N:
D:
Z:Adrian Scahill
M:4/4
L:1/8
K:D
FDDF AFDE|(3FED FA dAFA|GEEG BGEF|GABc dBaG|\
FADF AFED|(3FED FA dAFD|GABc dBAG|1 (3FGF EF D2AG:|2 (3FGF EF D2dB||\
Abde fdAe|dece (3BcB AF|(3GAG EG BGEF|GABc dedB|\
A2de fdAe|decd BdAF|GABc dBAG|1 (3FGF EF D2dB:|2 (3FGF EF D2AG||\


